!!!!SEGMENT: pl-kk--kk-i-474--001-004_studzinski-piotr--quarta-missa-sanctus.krn
!!!cenid: 18xx:1387
!!!COM: Studziński, Piotr
!!!COM-rismID: pe50044409
!!!CDT: 1825/10/16-1869/04/20
!!!CNT: Polish
!!!OPR: Quarta Missa
!!!OTL: Sanctus
!!!OMV: 004
!!!PDT: 1856
!!!AGN: Sacred; Mass
!!!SMS-siglum: PL-Kk
!!!SMS-shelfmark: Kk.I.474
!!!SMS-shelfwork: 001-004 M
!!!SMS-variant: Alto: PL-Kk Kk.I.474: 19
!!!SMS-altvar: Alto: PL-Kk Kk.I.474: 15-16
!!!NIFC-rismSourceID: 1001140244
!!!NIFC-islandoraID: pl-kk:14052
!!!URL-pdf-islandora: https://repozytorium.nifc.pl/islandora/object/pl-kk%3A14052/datastream/PDF/view
!!!URL-scan: https://polish.musicsources.pl/pl/lokalizacje/galeria/rekopisy/6081 @EN{Scan on Polish Music Sources Website} @PL{Skany w portalu Dziedzictwo Muzyki Polskiej w otwartym dostępie}
!!!ONB-nifc: UWAGA: części Mszy: 1. Kyrie, 2. Gloria, 3. Credo, 4. Sanctus, 5. Benedictus, 6. Agnus, 7. Dona. Uwaga: Gloria zapisana osobno na ostatnich stronach
!!!AIN: 1 alto 1 empty 1 organ 1 soprn 1 tenor
!!!key:
**kern	**text	**kern	**text	**dynam	**kern	**text	**dynam	**kern	**text	**kern	**text	**dynam	**kern	**text	**dynam
*part5	*part5	*part5	*part5	*part5	*part4	*part4	*part4	*part3	*part3	*part2	*part2	*part2	*part1	*part1	*part1
*group	*group	*group	*group	*group	*group1	*group1	*group1	*group1	*group1	*group1	*group1	*group1	*group1	*group1	*group1
*staff6	*staff6	*staff5	*staff5	*	*staff4	*staff4	*	*staff3	*staff3	*staff2	*staff2	*	*staff1	*staff1	*
*Iorgan	*	*Iempty	*	*	*Iempty	*	*	*Itenor	*	*Ialto	*	*	*Isoprn	*	*
*I"Organo.	*	*	*	*	*I"Basſo Duo	*	*	*I"Tenor	*	*I"Alto	*	*	*I"Soprano	*	*
*I'org	*	*	*	*	*I'B	*	*	*I'T	*	*I'A	*	*	*I'S	*	*
*clefF4	*	*clefG2	*	*	*clefF4	*	*	*clefC4	*	*clefG2	*	*	*clefG2	*	*
*k[b-]	*	*k[b-]	*	*	*k[b-]	*	*	*k[b-]	*	*k[b-]	*	*	*k[b-]	*	*
*F:	*	*F:	*	*	*F:	*	*	*F:	*	*F:	*	*	*F:	*	*
*M4/4	*	*M4/4	*	*	*M4/4	*	*	*M4/4	*	*M4/4	*	*	*M4/4	*	*
*met(c)	*	*met(c)	*	*	*met(c)	*	*	*met(c)	*	*met(c)	*	*	*met(c)	*	*
=1	=1	=1	=1	=1	=1	=1	=1	=1	=1	=1	=1	=1	=1	=1	=1
*^	*	*	*	*	*	*	*	*	*	*	*	*	*	*	*
*	*	*^	*	*	*	*	*	*	*	*	*	*	*	*	*	*
*	*	*	*	*	*	*	*2\right	*	*	*2\right	*	*2\right	*	*	*	*	*
!	!	!	!	!LO:TX:a:t=P:problem= napis "Sanctus" w źródle przed akoladą	!	!	!LO:TX:a:i:t=Sanctus	!	!	!	!	!LO:TX:a:i:t=Maestoso	!	!	!LO:TX:a:i:t=Maestoso	!	!
!	!	!	!	!LO:TX:a:i:t=Maestoso	!	!	!	!	!LO:DY:a	!	!	!LO:TX:i:a:t=Sanctus	!	!	!LO:TX:i:a:t=Sanctus	!	!
!LO:TX:a:t=P:problem=nazwa instrumentu, oznaczenia artykulacyjne, dynamiczne oraz tempa dopisane w źródle czerwonym atramentem	!	!	!	!LO:TX:a:t=P:problem=nazwa instrumentu, oznaczenia artykulacyjne, dynamiczne oraz tempa dopisane w źródle czerwonym atramentem	!	!	!	!	!	!	!	!LO:TX:a:t=P:problem= napis "Sanctus" w źródle przed kluczem	!	!	!	!	!
!	!	!	!	!	!	!	!LO:TX:a:t=P:problem=w źródle metrum 3/4 przekreślone ołówkiem	!	!	!	!	!	!	!	!	!	!
!LO:N:vis=1	!LO:TX:b:t=P:problem=problem z renderowaniem tekstu przy dolnej pięciolinii (naprzemiennie w warstwach)	!	!	!LO:TX:a:i:t=Sanctus	!	!LO:DY:b:rj	!	!	!	!LO:TX:a:t=P:problem= napis "Sanctus" w źródle przed kluczem	!	!LO:TX:a:t=P:problem=oznaczenia artykulacyjne, dynamiczne oraz tempa dopisane w źródle czerwonym atramentem	!	!	!LO:TX:a:t=P:problem=oznaczenia artykulacyjne, dynamiczne oraz tempa dopisane w źródle czerwonym atramentem	!	!
!	!	!	!	!	!	!	!LO:TX:a:t=P:problem=oznaczenia artykulacyjne, dynamiczne oraz tempa dopisane w źródle czerwonym atramentem	!	!	!LO:TX:i:a:t=Sanctus	!	!	!	!LO:DY:b:rj	!	!	!
2c\	4D 4DD\	.	San-	4a 4f/	.	p	4FF\ 4F	San-	p	2c\	San-	4f/	San-	p	4a/	San-	.
!	!	!	!	!	!	!	!	!	!	!	!	!	!	!	!	!	!LO:DY:b:rj
.	(>8C\L	.	.	(<8gL 8e/	.	.	(>8C\L	.	.	.	.	(<8e/L	.	.	(<8g/L	.	p
.	8F\J)	.	.	8aJ 8f/	.	.	8F\J)	.	.	.	.	8f/J)	.	.	8a/J)	.	.
!	!	!	!	!	!	!	!LO:TX:a:i:t=Maestoso	!	!	!LO:TX:a:t=P:problem=kaudy ćwierćnut z prawej strony	!	!LO:TX:a:t=f:problem=literka dopisana ołówkiem	!	!	!	!	!
4d/	4BB-/	.	.	4b- 4f/)	.	.	4BB-/	.	.	4d\	.	4f/	.	.	4b-/	.	.
8c/L	8C\L	.	.	4g 4e/	.	.	(<8C/L	.	.	4c\	.	4e/	.	.	4g/	.	.
8B-/J	8BB-\J	.	.	.	.	.	8BB-/J)	.	.	.	.	.	.	.	.	.	.
=2	=2	=2	=2	=2	=2	=2	=2	=2	=2	=2	=2	=2	=2	=2	=2	=2	=2
*	*2\right	*	*	*	*	*	*	*	*	*	*	*	*	*	*2\right	*	*
2.c/	2.AA\	.	-ctus	2.cc/ 2.f/	.	.	2.AA/	-ctus	.	2.c\	-ctus	2.f/	-ctus	.	2.cc\	-ctus	.
4r	4ryy	.	.	4r	.	.	4r	.	.	4r	.	4r	.	.	4r	.	.
=3	=3	=3	=3	=3	=3	=3	=3	=3	=3	=3	=3	=3	=3	=3	=3	=3	=3
2A/	4D\	.	San-	(<4a 4f/	.	.	4D\	San-	.	2A\	San-	4d/	San-	.	(>4f/	San-	.
.	(>8AA\L	.	.	8eL 8c#X/	.	.	(<8AA/L	.	.	.	.	(<8c#X/L	.	.	(<8e/L	.	.
.	8D\J)	.	.	8fJ 8d/	.	.	8D/J)	.	.	.	.	8d/J)	.	.	8f/J)	.	.
4B-/	4G\	.	.	4g 4d/	.	.	4G\	.	.	4c\	.	2d/	.	.	4g/	.	.
4A/	4D\	.	.	4f 4d/)	.	.	4D\	.	.	4A\	.	.	.	.	4f/	.	.
=4	=4	=4	=4	=4	=4	=4	=4	=4	=4	=4	=4	=4	=4	=4	=4	=4	=4
2.c#X 2.A 2.AA\	1ryy	.	-ctus	2.a 2.e/	.	.	2.AA\ 2.A	-ctus	.	2.c#X\	-ctus	2.e/	-ctus	.	2.a/)	-ctus	.
4r	.	.	.	4r	.	.	4r	.	.	4r	.	4r	.	.	4r	.	.
!LO:LB:g=original	!	!	!	!LO:LB:g=original	!	!	!LO:LB:g=original	!	!	!LO:LB:g=original	!	!LO:LB:g=original	!	!	!	!	!
=5	=5	=5	=5	=5	=5	=5	=5	=5	=5	=5	=5	=5	=5	=5	=5	=5	=5
*	*	*	*	*	*^	*	*	*	*	*	*	*	*	*	*	*	*
*	*	*	*	*	*above	*	*	*	*	*	*	*	*	*	*	*	*	*
!	!	!	!	!LO:TX:b:t=P:problem= tekst z oznaczeniem "above" nad pięciolinią	!	!	!LO:DY:b:rj	!LO:TX:a:i:t=solo	!	!	!	!	!	!	!LO:DY:b:rj	!	!	!
1c#X	8r	.	.	[>1b- [<1e	San	San-	p	8r	.	.	1c#X	San-	1e	San-	p	[>1b-	San-	.
.	8GG\	.	Do-	.	.	.	.	8GG/	Do-	.	.	.	.	.	.	.	.	.
.	8BB-\	.	-mi-	.	.	.	.	8BB-/	-mi-	.	.	.	.	.	.	.	.	.
.	8C#X\	.	-nus	.	.	.	.	8C#X/	-nus	.	.	.	.	.	.	.	.	.
.	8E\	.	De-	.	.	.	.	8E\	De-	.	.	.	.	.	.	.	.	.
.	8G\	.	-us	.	.	.	.	8G\	-us	.	.	.	.	.	.	.	.	.
.	8.B-\	.	Sa-	.	.	.	.	8.B-\	Sa-	.	.	.	.	.	.	.	.	.
.	16A\	.	-ba-	.	.	.	.	16A\	-ba-	.	.	.	.	.	.	.	.	.
*	*	*	*	*	*v	*v	*	*	*	*	*	*	*	*	*	*	*	*
!	!	!	!	!	!	!	!	!	!	!	!	!	!	!	!LO:LB:g=original	!	!
=6	=6	=6	=6	=6	=6	=6	=6	=6	=6	=6	=6	=6	=6	=6	=6	=6	=6
!	!	!	!	!LO:TX:a:t=P:problem=brak kaudy	!	!	!	!	!	!	!	!	!	!	!	!	!
!	!	!	!	!LO:N:vis=4:xstem	!	!	!	!	!	!	!	!	!	!	!	!	!
4c#X/	2.G\	.	-oth	4b-\] 4e\]	-ctus	.	2.G\	-oth	.	4c#X\	-ctus	4e/	-ctus	.	4b-\]	-ctus	.
4c#/	.	.	.	4b-/ 4e/	Do-	.	.	.	.	4c#\	Do-	4e/	Do-	.	4b-\	Do-	.
4c#/	.	.	.	4b-/ 4e/	-mi-	.	.	.	.	4c#\	-mi-	4e/	-mi-	.	4b-\	-mi-	.
4c#/	4r	.	.	4b-/ 4e/	-nus	.	4r	.	.	4c#\	-nus	4e/	-nus	.	4b-\	-nus	.
=7	=7	=7	=7	=7	=7	=7	=7	=7	=7	=7	=7	=7	=7	=7	=7	=7	=7
2c#X/	8r	.	.	2b- 2e/	De-	.	8r	.	.	2c#X\	De-	2e/	De-	.	2b-\	De-	.
.	8GG\	.	Do-	.	.	.	8GG/	Do-	.	.	.	.	.	.	.	.	.
.	8BB-\	.	-mi-	.	.	.	8BB-/	-mi-	.	.	.	.	.	.	.	.	.
.	8C#X\	.	-nus	.	.	.	8C#X/	-nus	.	.	.	.	.	.	.	.	.
2c#/	8E\	.	De-	2b- 2e/	-us	.	8E\	De-	.	2c#\	-us	2e/	-us	.	2b-\	-us	.
.	8G\	.	.	.	.	.	8G\	-us	.	.	.	.	.	.	.	.	.
.	8.B-\	.	us	.	.	.	8.B-\	Sa-	.	.	.	.	.	.	.	.	.
!	!LO:TX:t=P:problem=nuta zapisana w kolejnym takcie	!	!	!	!	!	!	!	!	!	!	!	!	!	!	!	!
.	16A\	.	Sa-	.	.	.	16A\	-ba-	.	.	.	.	.	.	.	.	.
!	!	!	!	!	!	!	!LO:LB:g=original	!	!	!	!	!	!	!	!	!	!
=8	=8	=8	=8	=8	=8	=8	=8	=8	=8	=8	=8	=8	=8	=8	=8	=8	=8
8r	4G\	.	-ba	8r	.	.	4G\	-oth	.	8r	.	8r	.	.	8r	.	.
4c#X/	.	.	.	4b-^> 4e/	De-	.	.	.	.	4c#X\	De-	4e^>/	De-	.	4b-^>\	De-	.
.	8F#X\	.	oth	.	.	.	8F#X\	.	.	.	.	.	.	.	.	.	.
8d/	8r	.	.	8b- 8d/	-us	.	8r	.	.	8d\	-us	8d/	-us	.	8a\	-us	.
8r	4A\	.	De-	8r	.	.	4A\	De-	.	8r	.	8r	.	.	8r	.	.
4d#X/	.	.	.	4cc^> 4f#X/	De-	.	.	.	.	4d#X\	De-	4f#X^>/	De-	.	4cc^>\	De-	.
.	8G#X\	.	-us	.	.	.	8G#X\	-us	.	.	.	.	.	.	.	.	.
8e/	8r	.	.	8bn 8e/	-us	.	8r	.	.	8e\	-us	8e/	-us	.	8bn\	-us	.
=9	=9	=9	=9	=9	=9	=9	=9	=9	=9	=9	=9	=9	=9	=9	=9	=9	=9
!	!	!	!	!	!	!LO:DY:a:rj	!	!	!	!	!	!	!	!	!	!	!
4e#X 4A\	1ryy	De-	.	4dd 4g#X\	.	p	4Bn\	De-	.	4e#X\	De-	(>4g#X/	De-	.	4dd\	De-	.
4f#X 4A#\	.	-us	.	4cc#X 4f#X\	.	.	4A#X\	-us	.	4f#X\	-us	4f#X/	-us	.	4cc#X\	-us	.
!LO:LB:g=original	!	!	!	!LO:LB:g=original	!	!	!	!	!	!	!	!	!	!	!	!	!
4d#X 4Any\	.	Sa-	.	4ccn 4fn\	.	.	4An\	Sa-	.	(>4d#X\	Sa-	(<4f#/	Sa-	.	4ccn\	Sa-	.
4e# 4G#X\	.	.	.	4b- 4e\	.	.	4G#X\	.	.	4e#\)	.	4e/))	.	.	4bn\	.	.
!	!	!	!	!	!	!	!	!	!	!LO:LB:g=original	!	!LO:LB:g=original	!	!	!	!	!
=10	=10	=10	=10	=10	=10	=10	=10	=10	=10	=10	=10	=10	=10	=10	=10	=10	=10
4c#X\ 4Gn\	2ryy	.	.	4b-X 4e\	.	.	4Gn\	.	.	4c#\	.	(<4e/	.	.	4b-X\	.	.
4d\ 4Fn\	.	-ba	.	4a 4d/	.	.	4Fn\	-ba-	.	4d\	-ba-	4d/)	-ba-	.	4a\	-ba-	.
4C#X\	2A/	oth	.	4g 4e/	.	.	4C#X/	-oth	.	2A/	-oth	4e/	-oth	.	(>4g\	-oth	.
4D\	.	.	.	4f 4d/	.	.	4D\	.	.	.	.	4d/	.	.	4f\)	.	.
!	!	!	!	!	!	!	!	!	!	!	!	!	!	!	!LO:LB:g=original	!	!
=11	=11	=11	=11	=11	=11	=11	=11	=11	=11	=11	=11	=11	=11	=11	=11	=11	=11
4G\ 4AA\	2ryy	De-	.	4e 4c#X/	.	.	4AA/	De-	.	4G/	De-	4c#X/	De-	.	4e/	De-	.
4Fn\ 4BB-X\	.	-us	.	4d/	.	.	4BB-X/	-us	.	4Fn/	-us	4d/	-us	.	4d/	-us	.
4.d 4.B-/	4GG\	.	Sa-	4.g 4.e/	.	.	4GG/	Sa-	.	4.d\	Sa-	4.e/	Sa-	.	4.g/	Sa-	.
.	4G\	.	-ba-	.	.	.	4G\	-ba-	.	.	.	.	.	.	.	.	.
8B-/	.	.	.	8e 8d/	.	.	.	.	.	8B-\	-ba-	8d/	-ba-	.	8e/	-ba-	.
!	!	!	!	!	!	!	!LO:LB:g=original	!	!	!	!	!	!	!	!	!	!
=12	=12	=12	=12	=12	=12	=12	=12	=12	=12	=12	=12	=12	=12	=12	=12	=12	=12
2.A\	1ryy	-oth	.	2.e 2.c#X/	.	.	2.A\	-oth	.	2.A\	-oth	2.c#X/	-oth	.	2.e/	-oth	.
4r	.	.	.	4r	.	.	4r	.	.	4r	.	4r	.	.	4r	.	.
=13	=13	=13	=13	=13	=13	=13	=13	=13	=13	=13	=13	=13	=13	=13	=13	=13	=13
!	!	!	!	!LO:TX:a:i:t=daliceto	!	!LO:DY:b:rj	!	!	!LO:DY:b:rj	!	!	!	!	!LO:DY:b:rj	!	!	!
4d\	1ryy	San-	.	4f 4d/	.	p	4d\	San-	p	2r	.	4d/	San-	p	(>4f/	San-	.
!	!	!	!	!	!	!	!LO:TX:a:t=P:problem=brak kaudy	!	!	!	!	!	!	!	!	!	!
!	!	!	!	!	!	!	!LO:N:vis=4:xstem	!	!	!	!	!	!	!	!	!	!
4c\	.	.	.	4a 4e/	.	.	4c\	.	.	.	.	4e/	.	.	4a\)	.	.
4d\ 4B-\	.	-ctus	.	4dd 4f\	.	.	4B-\	-ctus	.	4d\	San-	2f/	-ctus	.	(>4dd\	-ctus	.
4c\ 4A\	.	.	.	4cc 4f\	.	.	4A\	.	.	4c\	-ctus	.	.	.	4cc\)	.	.
=14	=14	=14	=14	=14	=14	=14	=14	=14	=14	=14	=14	=14	=14	=14	=14	=14	=14
!	!	!	!	!	!	!	!	!	!	!	!	!LO:TX:a:i:t=legato	!	!	!	!	!
4c 4G\	1ryy	Do-	.	4b- 4e\	.	.	4G\	Do-	.	2c\	Do-	4e/	Do-	.	(>4b-\	Do-	.
4c 4F\	.	.	.	4a 4f\	.	.	4F\	.	.	.	.	4f/	.	.	4a\)	.	.
!	!	!	!	!	!	!	!	!	!	!	!	!	!	!	!LO:TX:a:i:t=legato	!	!
4G 4E\	.	-mi-	.	4g 4c/	.	.	4E\	-mi-	.	4G\	-mi-	4c/	-mi-	.	4g\	-mi-	.
4G 4D\	.	-nus	.	4f 4Bn/	.	.	4D\	-nus	.	4G\	-nus	4Bn/	-nus	.	4f\	-nus	.
!LO:LB:g=original	!	!	!	!LO:LB:g=original	!	!	!	!	!	!LO:LB:g=original	!	!LO:LB:g=original	!	!	!	!	!
=15	=15	=15	=15	=15	=15	=15	=15	=15	=15	=15	=15	=15	=15	=15	=15	=15	=15
2G 2C\	1ryy	De-	.	2e 2c/	.	.	2C/	De-	.	2G/	De-	2c/	De-	.	2e/	De-	.
2F 2GG\	.	-us	.	2d 2Bn/	.	.	2GG/	-us	.	2F/	-us	2Bn/	-us	.	2d/	-us	.
=16	=16	=16	=16	=16	=16	=16	=16	=16	=16	=16	=16	=16	=16	=16	=16	=16	=16
2E 2AA\	1ryy	Sa-	.	2c 2A/	.	.	2AA/	Sa-	.	2E/	Sa-	2A/	Sa-	.	2c/	Sa-	.
2A 2D\	.	-ba-	.	2f 2d/	.	.	2D\	-ba-	.	2A\	-ba-	2d/	-ba-	.	2f/	-ba-	.
!	!	!	!	!	!	!	!LO:LB:g=original	!	!	!	!	!	!	!	!LO:LB:g=original	!	!
=17	=17	=17	=17	=17	=17	=17	=17	=17	=17	=17	=17	=17	=17	=17	=17	=17	=17
2.G\	1ryy	-oth	.	2.d 2.Bn/	.	.	2.G\	-oth	.	2.G/	-oth	2.Bn/	-oth	.	2.d/	-oth	.
4r	.	.	.	4r	.	.	4ryy	.	.	4r	.	4r	.	.	4r	.	.
=18||	=18||	=18||	=18||	=18||	=18||	=18||	=18||	=18||	=18||	=18||	=18||	=18||	=18||	=18||	=18||	=18||	=18||
*M3/4	*	*	*	*M3/4	*	*	*M3/4	*	*	*M3/4	*	*M3/4	*	*	*M3/4	*	*
!	!	!	!	!	!	!LO:DY:b:rj	!	!	!LO:DY:b:rj	!	!	!	!	!	!	!	!
4c 4C\	2.ryy	Ple-	.	2.r	.	p	4C\	Ple-	p	4c\	Ple-	2.r	.	.	2.r	.	.
4c 4C\	.	-ni	.	.	.	.	4C\	-ni	.	4c\	-ni	.	.	.	.	.	.
4c 4C\	.	sunt	.	.	.	.	4C\	sunt	.	4c\	sunt	.	.	.	.	.	.
=19	=19	=19	=19	=19	=19	=19	=19	=19	=19	=19	=19	=19	=19	=19	=19	=19	=19
!	!	!	!	!	!	!	!	!	!	!	!	!	!	!LO:DY:b:rj	!	!	!
4c 4C\	2.ryy	ce-	.	4g 4e/	.	.	4C\	ce-	.	4c\	ce-	(>4e/	Ple-	p	4g/	Ple-	.
!	!	!	!	!	!	!	!	!	!	!	!	!	!	!	!LO:TX:a:t=P:problem=niejednoznaczny zapis łuku	!	!LO:DY:a:rj
4c 4C\	.	-li	.	4f#X 4d#X/	.	.	4C\	-li	.	4c\	-li	4d#X/	-ni	.	(>4f#X/	-ni	p
4c 4C\	.	et	.	4g 4e/	.	.	4C\	et	.	4c\	et	4e/)	sunt	.	4g/)	sunt	.
=20	=20	=20	=20	=20	=20	=20	=20	=20	=20	=20	=20	=20	=20	=20	=20	=20	=20
!	!	!	!	!LO:TX:a:i:t=legatto:rj	!	!	!	!	!	!	!	!	!	!	!	!	!
2c 2C\	2.ryy	ter-	.	4g#X 4e/	.	.	2C\	ter-	.	2c\	ter-	(<4e/	ce-	.	4g#X/	ce-	.
.	.	.	.	4a 4fn/	.	.	.	.	.	.	.	4f/)	-li	.	4a/	-li	.
4c 4C\	.	-ra	.	4r	.	.	4C\	-ra	.	4c\	-ra	4r	.	.	4r	.	.
!	!	!	!	!	!	!	!	!	!	!LO:LB:g=original	!	!	!	!	!	!	!
=21	=21	=21	=21	=21	=21	=21	=21	=21	=21	=21	=21	=21	=21	=21	=21	=21	=21
!	!	!	!	!	!	!	!	!	!	!	!	!LO:TX:b:t=I	!	!	!LO:TX:a:t=I	!	!
4c 4C\	2.ryy	Ple-	.	2.r	.	.	4C\	Ple-	.	4c\	Ple-	2.r	.	.	2.r	.	.
4c 4C\	.	-ni	.	.	.	.	4C\	-ni	.	4c\	-ni	.	.	.	.	.	.
4c 4C\	.	sunt	.	.	.	.	4C\	sunt	.	4c\	sunt	.	.	.	.	.	.
!LO:LB:g=original	!	!	!	!LO:LB:g=original	!	!	!	!	!	!	!	!LO:LB:g=original	!	!	!	!	!
=22	=22	=22	=22	=22	=22	=22	=22	=22	=22	=22	=22	=22	=22	=22	=22	=22	=22
4c 4F#X 4C\	2.ryy	ce-	.	4a 4d#X/	ce-	.	4C\ 4F#X	ce-	.	4c\	ce-	4d#X/	ce-	.	(>4a/	ce-	.
4c 4F# 4C\	.	-li	.	4g#X 4d#/	-li	.	4C\ 4F#	-li	.	4c\	-li	4d#/	-li	.	4g#X/	-li	.
4c 4F# 4C\	.	et	.	4a 4d#/	et	.	4C\ 4F#	et	.	4c\	et	4d#/	et	.	4a/	et	.
!	!	!	!	!	!	!	!LO:LB:g=original	!	!	!	!	!	!	!	!	!	!
=23	=23	=23	=23	=23	=23	=23	=23	=23	=23	=23	=23	=23	=23	=23	=23	=23	=23
*2\left	*	*	*	*	*	*	*	*	*	*	*	*	*	*	*	*	*
2c 2G 2C\	2.ryy	ter-	.	4a 4e/	.	.	2C\ 2G	ter-	.	2c\	ter-	4e/	ter-	.	4a/)	ter-	.
.	.	.	.	4b- 4e/	.	.	.	.	.	.	.	4e/	-ra	.	4b-\	-ra	.
4c 4A 4C\	.	-ra	.	4r	.	.	4C\ 4G	-ra	.	4c\	-ra	4r	.	.	4r	.	.
!	!	!	!	!	!	!	!	!	!	!	!	!	!	!	!LO:LB:g=original	!	!
=24	=24	=24	=24	=24	=24	=24	=24	=24	=24	=24	=24	=24	=24	=24	=24	=24	=24
*2\right	*	*	*	*	*	*	*	*	*	*	*	*	*	*	*	*	*
!	!	!	!	!	!	!	!	!	!	!	!	!	!	!	!LO:TX:a:t=P:problem=w źródle przed tym taktem znajdują się 2 przekreślone takty	!	!
!	!	!	!	!	!	!	!LO:TX:i:a:t=solo	!	!	!LO:TX:b:t=I	!	!LO:TX:b:t=I	!	!	!LO:TX:a:t=I	!	!
4C\	2.ryy	glo-	.	2.r	.	.	4C\	glo-	.	2.r	.	2.r	.	.	2.r	.	.
4E\	.	-ri-	.	.	.	.	4E\	-ri-	.	.	.	.	.	.	.	.	.
4G\	.	-a	.	.	.	.	4G\	-a	.	.	.	.	.	.	.	.	.
=25	=25	=25	=25	=25	=25	=25	=25	=25	=25	=25	=25	=25	=25	=25	=25	=25	=25
!LO:TX:a:t=P:problem=brak kaudy	!	!	!	!	!	!	!	!	!	!	!	!	!	!	!	!	!
!LO:N:vis=4:xstem	!	!	!	!	!	!	!	!	!	!	!	!	!	!	!LO:TX:a:t=P:problem=w źródle crescendo na pięciolinii pod nutami	!	!
4e/	2.B-\	tu-	.	4dd 4g\	glo-	.	2.B-\	tu-	.	4e\	glo-	4g/	glo-	.	4dd\	glo-	<
4e/	.	.	.	4dd 4g\	-ri-	.	.	.	.	4e\	-ri-	4g/	-ri-	.	4dd\	-ri-	.
4e/	.	.	.	4dd 4g\	-a	.	.	.	.	4e\	-a	4g/	-a	.	4dd\	-a	.
=26	=26	=26	=26	=26	=26	=26	=26	=26	=26	=26	=26	=26	=26	=26	=26	=26	=26
*	*	*	*	*^	*	*	*	*	*	*	*	*	*	*	*	*	*
*	*	*	*	*	*2\right	*	*	*	*	*	*	*	*	*	*	*	*	*
2f/	2A\	-a	.	2dd/	2f\	tu-	.	2.A\	-a	.	2f\	tu-	2f/	tu-	.	2dd^>\	tu-	[
4f/	4ryy	.	.	4cc/	4f\	-a	.	.	.	.	4f\	-a	4f/	-a	.	4cc\	-a	.
.	.	.	.	.	.	.	.	.	.	.	.	.	.	.	.	.	.	.
*	*	*	*	*v	*v	*	*	*	*	*	*	*	*	*	*	*	*	*
!	!	!	!	!	!	!	!	!	!	!LO:LB:g=original	!	!	!	!	!	!	!
=27	=27	=27	=27	=27	=27	=27	=27	=27	=27	=27	=27	=27	=27	=27	=27	=27	=27
!	!	!	!	!	!	!	!	!	!	!	!	!	!	!	!	!	!LO:HP:a
4c#X 4G\	2.ryy	glo-	.	4b- 4e/	.	.	4G\	glo-	.	4c#X\	glo-	4e/	glo-	.	4b-\	glo-	<
4c# 4G\	.	-ri-	.	4b- 4e/	.	.	4G\	-ri-	.	4c#\	-ri-	4e/	-ri-	.	4b-\	-ri-	.
4c# 4G\	.	-a	.	4b- 4e/	.	.	4G\	-a	.	4c#\	-a	4e/	-a	.	4b-\	-a	.
=28	=28	=28	=28	=28	=28	=28	=28	=28	=28	=28	=28	=28	=28	=28	=28	=28	=28
2d 2F\	2.ryy	tu-	.	2b- 2d/	.	.	2F\	tu-	.	2d\	tu-	2d/	tu-	.	2b-^>\	tu-	[
8d 8F\	.	-a	.	8a 8d/	.	.	8F\	-a	.	8d\	-a	8d/	-a	.	8a\	-a	.
8r	.	.	.	8r	.	.	8r	.	.	8r	.	8r	.	.	8r	.	.
!LO:LB:g=original	!	!	!	!LO:LB:g=original	!	!	!LO:LB:g=original	!	!	!	!	!LO:LB:g=original	!	!	!LO:LB:g=original	!	!
=29	=29	=29	=29	=29	=29	=29	=29	=29	=29	=29	=29	=29	=29	=29	=29	=29	=29
!	!	!	!	!	!	!	!LO:TX:a:t=I	!	!	!	!	!	!	!	!	!	!
.	.	.	.	8qqa/	.	.	.	.	.	.	.	.	.	.	8qqa/	.	.
*	*	*	*	*^	*	*	*	*	*	*	*	*	*	*	*	*	*
!	!	!	!	!	!	!	!	!LO:N:vis=1	!	!	!	!	!	!	!	!	!	!
8B-/L	2.rFF	Ho-	.	8g/L	4d\	.	.	2.r	.	.	8B-\L	O-	4d/	Ho-	.	(<8g/L	Ho-	.
8A/J	.	.	.	8f#X/J	.	.	.	.	.	.	8A\J	.	.	.	.	8f#X/J)	.	.
8B-/L	.	-san-	.	8g/L	4d\	.	.	.	.	.	8A\L	-san-	4d/	-san-	.	(<8g/L	-san-	.
8F#X/J	.	.	.	8a/J	.	.	.	.	.	.	8F#X\J	.	.	.	.	8a/J)	.	.
8G/L	.	-na	.	8b-/L	4d\	.	.	.	.	.	8G/L	-na	4d/	-na	.	(<8b-/L	-na	.
8A/J	.	.	.	8cc/J	.	.	.	.	.	.	8A/J	.	.	.	.	8cc/J)	.	.
=30	=30	=30	=30	=30	=30	=30	=30	=30	=30	=30	=30	=30	=30	=30	=30	=30	=30	=30
2B-/	4r	in	.	4dd/	2g\	.	.	4r	.	.	2B-\	in	2g/	in	.	(>4dd\	in	.
.	4BB-\	.	in	4b-/	.	.	.	4BB-/	in	.	.	.	.	.	.	4b-\)	.	.
4G/	4BB-\	ex-	ex	4g/	4d\	.	.	4BB-/	ex-	.	4G\	ex-	4d/	ex	.	4g\	ex-	.
=31	=31	=31	=31	=31	=31	=31	=31	=31	=31	=31	=31	=31	=31	=31	=31	=31	=31	=31
2.G 2.C\	2.ryy	-cel-	.	2e/	2.B-\	.	.	2.C/	-cel-	.	2.G/	-cel-	2.B-/	-cel-	.	2e/	-cel-	.
.	.	.	.	4g/	.	.	.	.	.	.	.	.	.	.	.	4g/	.	.
*	*	*	*	*v	*v	*	*	*	*	*	*	*	*	*	*	*	*	*
=32	=32	=32	=32	=32	=32	=32	=32	=32	=32	=32	=32	=32	=32	=32	=32	=32	=32
4A/	8F\	-sis	.	4f 4A/	.	.	8F\	-sis	.	4A/	-sis	4A/	-sis	.	4f/	-sis	.
!	!	!	!	!	!	!	!LO:TX:i:a:t=solo:rj	!	!	!	!	!	!	!	!	!	!
.	8E\	.	o-	.	.	.	8E\	o-	.	.	.	.	.	.	.	.	.
4ryy	8G\L	.	-san-	4r	.	.	(>8G\L	-san-	.	4r	.	4r	.	.	4r	.	.
.	8F\J	.	.	.	.	.	8F\J)	.	.	.	.	.	.	.	.	.	.
4ryy	8E\L	.	-na	4r	.	.	(>8E\L	-na	.	4r	.	4r	.	.	4r	.	.
.	8D\J	.	.	.	.	.	8D\J)	.	.	.	.	.	.	.	.	.	.
!	!	!	!	!	!	!	!	!	!	!LO:LB:g=original	!	!	!	!	!	!	!
=33	=33	=33	=33	=33	=33	=33	=33	=33	=33	=33	=33	=33	=33	=33	=33	=33	=33
!LO:N:n=1:vis=2	!	!	!	!	!	!	!	!	!	!	!	!	!	!	!	!	!
2.A 2.C#X\	2.ryy	in	.	4a 4e/	Ho-	.	2.C#X\	in	.	2.A\	in	4e/	Ho-	.	4a/	Ho-	.
.	.	.	.	4a 4e/	-san-	.	.	.	.	.	.	4e/	-san-	.	4a/	-san-	.
.	.	.	.	4g 4d/	-na	.	.	.	.	.	.	4e/	-na	.	4g/	-na	.
=34	=34	=34	=34	=34	=34	=34	=34	=34	=34	=34	=34	=34	=34	=34	=34	=34	=34
*	*	*	*	*^	*	*	*	*	*	*	*	*	*	*	*	*	*
!	!	!	!	!	!LO:TX:a:t=P:problem=kaudy z prawej strony w tym takcie	!	!	!	!	!	!	!	!	!	!	!	!	!
2.A 2.D\	2.ryy	ex-	.	4f/	4f\	in	.	2.D\	ex-	.	2.A\	ex-	4f/	in	.	4f/	in	.
.	.	.	.	4e/	4e\	.	.	.	.	.	.	.	4e/	.	.	4e/	.	.
.	.	.	.	4d/	4d\	ex-	.	.	.	.	.	.	4d/	ex-	.	4d/	ex-	.
*	*	*	*	*v	*v	*	*	*	*	*	*	*	*	*	*	*	*	*
!	!	!	!	!	!	!	!	!LO:PB:g=original	!	!	!	!	!	!	!LO:LB:g=original	!	!
=35	=35	=35	=35	=35	=35	=35	=35	=35	=35	=35	=35	=35	=35	=35	=35	=35	=35
!LO:N:n=3:vis=4	!	!	!	!	!	!LO:DY:b=2:rj	!	!	!	!	!	!	!	!	!	!	!
!LO:N:n=1:vis=2	!	!	!	!	!	!	!	!	!	!	!	!	!	!	!	!	!
!LO:N:n=2:vis=2	!	!	!	!	!	!	!	!	!	!	!	!	!	!	!	!	!LO:DY:b:rj
2.cn 2.G 2.Cn\	2.ryy	-cel-	.	2.cc 2.e/	-cel	ff	2.Cn/	-cel-	.	2.cn\	-cel-	2.e^>/	-cel-	.	2.cc\	-cel-	f
!LO:PB:g=original	!	!	!	!LO:PB:g=original	!	!	!	!	!	!	!	!LO:LB:g=original	!	!	!	!	!
=36	=36	=36	=36	=36	=36	=36	=36	=36	=36	=36	=36	=36	=36	=36	=36	=36	=36
!	!	!	!	!	!	!	!LO:TX:i:a:t=solo	!	!	!	!	!	!	!	!	!	!
4c/	8F\	-sis	.	4a 4f/	.	.	8F\	-sis	.	4c\	-sis	4f/	-sis	.	4a/	-sis	.
.	8E\	.	Ho-	.	.	.	8E\	o-	.	.	.	.	.	.	.	.	.
4rd	8G\L	.	-san-	4r	.	.	(>8G\L	-san-	.	4r	.	4r	.	.	4r	.	.
.	8F\J	.	.	.	.	.	8F\J)	.	.	.	.	.	.	.	.	.	.
4rd	8E\L	.	-na	4r	.	.	(>8E\L	-na	.	4r	.	4r	.	.	4r	.	.
.	8D\J	.	.	.	.	.	8D\J)	.	.	.	.	.	.	.	.	.	.
=37	=37	=37	=37	=37	=37	=37	=37	=37	=37	=37	=37	=37	=37	=37	=37	=37	=37
!LO:N:vis=2	!	!	!	!	!	!	!	!	!	!	!	!	!	!	!	!	!
2.A 2.C#X\	2.ryy	in	.	4a 4e/	Ho-	.	2.C#X/	in	.	2.A\	in	4e/	Ho-	.	4a/	Ho-	.
.	.	.	.	4a 4e/	-san-	.	.	.	.	.	.	4e/	-san-	.	4a/	-san-	.
.	.	.	.	4g 4e/	-na	.	.	.	.	.	.	4e/	-na	.	4g/	-na	.
=38	=38	=38	=38	=38	=38	=38	=38	=38	=38	=38	=38	=38	=38	=38	=38	=38	=38
*	*	*	*	*^	*	*	*	*	*	*	*	*	*	*	*	*	*
!LO:N:vis=2	!	!	!	!	!LO:TX:a:t=P:problem=kaudy z prawej strony w tym takcie	!	!	!	!	!	!	!	!	!	!	!	!	!
2.A 2.D\	2.ryy	ex-	.	4f/	4f\	in	.	2.D\	ex-	.	2.A\	ex-	4f/	in	.	4f/	in	.
.	.	.	.	4e/	4e\	.	.	.	.	.	.	.	4e/	[[ex]]	.	4e/	.	.
.	.	.	.	4d/	4d\	ex	.	.	.	.	.	.	4d/	ex-	.	4d/	ex-	.
*	*	*	*	*v	*v	*	*	*	*	*	*	*	*	*	*	*	*	*
=39	=39	=39	=39	=39	=39	=39	=39	=39	=39	=39	=39	=39	=39	=39	=39	=39	=39
!LO:N:vis=2	!	!	!	!	!	!LO:DY:b:rj	!	!	!LO:DY:b:rj	!	!	!	!	!LO:DY:b:rj	!	!	!LO:DY:b:rj
2.G 2.C\	2.ryy	-cel-	.	2.cc 2.e/	.	ff	2.Cn/	-cel-	ff	2.G/	-cel-	2.e/	-cel-	f <[[	2.cc\	-cel-	f
=40	=40	=40	=40	=40	=40	=40	=40	=40	=40	=40	=40	=40	=40	=40	=40	=40	=40
*	*	*	*	*^	*	*	*	*	*	*	*	*	*	*	*	*	*
!	!	!	!	!	!LO:TX:a:t=P:problem=kauda z prawej strony	!	!	!	!	!	!	!	!	!	!LO:DY:a	!	!	!
4A 4F\	2.ryy	-sis	.	4f/	4f\	.	.	4F\	-sis	.	4A\	-sis	4f/	-sis	>	4a/	-sis	.
4r	.	.	.	4r	4ryy	.	.	4r	.	.	4r	.	4r	.	]	4r	.	.
4r	.	.	.	4r	4ryy	.	.	4r	.	.	4r	.	4r	.	.	4r	.	.
*v	*v	*	*	*	*	*	*	*	*	*	*	*	*	*	*	*	*	*
*	*	*	*v	*v	*	*	*	*	*	*	*	*	*	*	*	*	*
*	*v	*v	*	*	*	*	*	*	*	*	*	*	*	*	*	*
==	==	==	==	==	==	==	==	==	==	==	==	==	==	==	==
*-	*-	*-	*-	*-	*-	*-	*-	*-	*-	*-	*-	*-	*-	*-	*-
!!!system-decoration: [g1]{s5,s6}
!!!RDF**kern: > = above
!!!RDF**kern: < = below
!!!EED: Mateusz Mrugas
!!!EEV: 2021-01-13
!!!ENC: Tomasz Grochalski
!!!END: 2021-01-08
!!!YEC: Copyright 2022 Narodowy Instytut Fryderyka Chopina (https://polishscores.org)
!!!YEM: Licence CC BY 4.0 (https://creativecommons.org/licenses/by/4.0)
